www/assets/icons/4g_plus_mobiledata.svg

<svg xmlns="http://www.w3.org/2000/svg" width="24" height="24" viewBox="0 0 24 24" fill='currentColor'><path d="M12.5 11v2h2v2h-4V9h6c0-1.1-.9-2-2-2h-4c-1.1 0-2 .9-2 2v6c0 1.1.9 2 2 2h4c1.1 0 2-.9 2-2v-4zm11 0h-2V9h-2v2h-2v2h2v2h2v-2h2zm-17-4h-2v5h-2V7h-2v7h4v3h2v-3h1v-2h-1z"/></svg>

<svg width="24" height="24" viewBox="0 0 24 24" xmlns="http://www.w3.org/2000/svg" fill='currentColor'><path d="M12.5 11V13H14.5V15H10.5V9H16.5C16.5 7.9 15.6 7 14.5 7H10.5C9.4 7 8.5 7.9 8.5 9V15C8.5 16.1 9.4 17 10.5 17H14.5C15.6 17 16.5 16.1 16.5 15V11H12.5ZM23.5 11H21.5V9H19.5V11H17.5V13H19.5V15H21.5V13H23.5V11ZM6.5 7H4.5V12H2.5V7H0.5V14H4.5V17H6.5V14H7.5V12H6.5V7Z"/></svg>
